!!!COM: Robert Franz
!!!CNT: Deutscher
!!!TXO: Deutsche 
!!!OTL: "Weisst du noch?"
!!!OPS: Op. 42
!!!ONM: No. 4
!!!ONB: Original key: C Major
!!!LYR: Hafis
!!!ENC: Brian Bice
!!!YOR: Vocal Album, G. Schirmer, Inc., 1907
!!!ODT: 1870/
!!NB: Vocal melody and text only encoded.
**kern	**silbe
*clefG2	*
*k[b-e-]	*
*M2/4	*
=0	=0
4.r	.
{16d	{Weisst
16b-	du
=1	=1
8a	noch,
8g	mein
16f	su2-
16g	-sses
16f	Herz,
16e-	wie
=2	=2
8d	al-
16c	-les
16c	sich
(16B-	hold
16d)	|
(16f	be-
16b-)	|
=3	=3
8a	-ge-
8g	-ben
16f	zwi-
16b-	-schen
16f	dir
16e-	und
=4	=4
4d}	mir?}
8r	.
{16d	{Wie
16b-	zu
=5	=5
8a	schel-
8g	-ten
16f	dei-
16g	-ne
16f	Lip-
16e-	-pe
=6	=6
8d	rang
8c	und
(16B-	doch
16d)	|
16f	Ho-
16b-	-nig-
=7	=7
8a	-ku2s-
8g	-se
16f	tra2u-
16b-	-fel-
16f	-ten
16e-	von
=8	=8
4d}	ihr?}
8r	.
{16dd	{Wie
16cc	auf
=9	=9
8bn	uns
8d	der
16cc	stil-
16g	-le
16e-	Blick
16f	des
=10	=10
(8g	Monds
16f)	|
16e-	ge-
8d	-ruht,
16c	und
16d	in
=11	=11
8e-	sei-
8f	-nem
8g	stil-
8cc	-len
=12	=12
(16b-	Bli-
16a-)	|
(16g	-cke
16f)	|
8g}	wir!}
{16dd	{Wie
16cc	was
=13	=13
8bn	sich
8dd	lein
16cc	gla2u-
16g	-bi-
16e-	-ges
16f	Ge-
=14	=14
(8g	-mu2-
16f)	|
16e-	-te
8d	tra2umt
16c	uns
16d	die
=15	=15
*M3/4	*
8e-	Huld
8f	des
8g	Him-
8ee-	-mels
(16dd	schenk-
16cc	|
16bn)	|
16cc	-te
=16	=16
*M2/4	*
(4dd	hier?
8g)}	|}
8r	.
=19	=19
4r	.
8r	.
{16d	{Weisst
16b-	du
=20	=20
8a	noch,
8g	mein
16f	su2-
16g	-sses
16f	Herz,
16e-	wie
=21	=21
8d	al-
16c	-les
16c	sich
(16B-	hold
16d)	|
(16f	be-
16b-)	|
=22	=22
8a	-ge-
8g	-ben
16f	zwi-
16b-	-schen
16f	dir
16e-	und
=23	=23
4d}	mir?}
8r	.
*-	*-
